; generated by Slic3r 1.2.9 on 2018-05-24 at 17:12:41

; external perimeters extrusion width = 0.50mm
; perimeters extrusion width = 0.72mm
; infill extrusion width = 0.72mm
; solid infill extrusion width = 0.72mm
; top infill extrusion width = 0.72mm

; external perimeters extrusion width = 0.50mm
; perimeters extrusion width = 0.72mm
; infill extrusion width = 0.72mm
; solid infill extrusion width = 0.72mm
; top infill extrusion width = 0.72mm

M190 S120 ; set bed temperature
M104 S230 T0 ; set temperature
M104 S230 T1 ; set temperature
G28 ; home all axes
G1 Z5 F5000 ; lift nozzle F = feedrate
M83 ; set relative mode
M302 P1 ; allow cold extrusion
;start of g code
M109 S230 T0 ; wait for temperature to be reached
M109 S230 T1 ; wait for temperature to be reached
G21 ; set units to millimeters
G90 ; use absolute coordinates
M82 ; use absolute distances for extrusion
G92 E0
T0
G92 E0
;before layer change
G1 Z0.350 F7800.000
;after layer change
G1 E-2.00000 F2400.00000
G92 E0
G1 X87.104 Y87.126 F7800.000
G1 E2.00000 F2400.00000
G1 X87.574 Y86.656 E2.06043 F1800.000
G1 X89.339 Y85.209 E2.26799
G1 X90.415 Y84.489 E2.38572
G1 X92.426 Y83.413 E2.59310
G1 X93.627 Y82.916 E2.71134
G1 X95.811 Y82.253 E2.91883
G1 X97.084 Y82.000 E3.03687
G1 X99.353 Y81.777 E3.24412
G1 X100.648 Y81.777 E3.36189
G1 X101.743 Y81.885 E3.46192
G1 X102.920 Y82.000 E3.56945 F1800.000
G1 X104.193 Y82.254 E3.68752
G1 X106.375 Y82.915 E3.89482
G1 X107.576 Y83.413 E4.01303
G1 X109.586 Y84.488 E4.22030
G1 X110.666 Y85.210 E4.33845
G1 X112.428 Y86.657 E4.54575
G1 X113.346 Y87.575 E4.66377
G1 X114.791 Y89.337 E4.87098
G1 X115.509 Y90.412 E4.98857
G1 X116.587 Y92.426 E5.19628
G1 X117.084 Y93.627 E5.31450
G1 X117.746 Y95.809 E5.52179
G1 X117.999 Y97.082 E5.63985
G1 X118.222 Y99.351 E5.84717
G1 X118.222 Y100.647 E5.96498
G1 X117.999 Y102.917 E6.17239
G1 X117.746 Y104.190 E6.29042
G1 X117.084 Y106.372 E6.49776
G1 X116.586 Y107.575 E6.61612
G1 X115.510 Y109.585 E6.82340
G1 X114.792 Y110.659 E6.94092
G1 X113.347 Y112.423 E7.14822
G1 X112.427 Y113.344 E7.26660
G1 X110.665 Y114.790 E7.47389
G1 X109.585 Y115.512 E7.59196
G1 X107.575 Y116.586 E7.79923
G1 X106.375 Y117.084 E7.91740
G1 X104.191 Y117.746 E8.12489
G1 X102.919 Y117.999 E8.24281
G1 X100.649 Y118.222 E8.45019
G1 X99.348 Y118.222 E8.56847
G1 X97.081 Y117.998 E8.77563
G1 X95.811 Y117.746 E8.89336
G1 X93.629 Y117.084 E9.10068
G1 X92.430 Y116.588 E9.21867
G1 X90.417 Y115.512 E9.42626
G1 X89.334 Y114.789 E9.54470
G1 X87.571 Y113.341 E9.75210
G1 X86.658 Y112.427 E9.86956
G1 X85.212 Y110.667 E10.07674
G1 X84.487 Y109.582 E10.19537
G1 X83.412 Y107.571 E10.40273
G1 X82.917 Y106.373 E10.52060
G1 X82.254 Y104.189 E10.72809
G1 X82.002 Y102.922 E10.84563
G1 X81.777 Y100.650 E11.05321
G1 X81.777 Y99.351 E11.17131
G1 X82.001 Y97.082 E11.37863
G1 X82.254 Y95.809 E11.49664
G1 X82.916 Y93.627 E11.70398
G1 X83.413 Y92.426 E11.82216
G1 X84.489 Y90.415 E12.02956
G1 X85.210 Y89.336 E12.14752
G1 X86.655 Y87.575 E12.35469
G1 X87.051 Y87.179 E12.40559
G1 E10.40559 F2400.00000
G92 E0
G1 X88.616 Y100.000 F7800.000
G1 E2.00000 F2400.00000
G1 X88.835 Y97.779 E2.20294 F1800.000
G1 X89.483 Y95.643 E2.40590
G1 X90.535 Y93.676 E2.60877
G1 X91.950 Y91.952 E2.81154
G1 X93.677 Y90.535 E3.01472
G1 X95.645 Y89.483 E3.21762
G1 X97.781 Y88.835 E3.42057
G1 X100.001 Y88.616 E3.62344
G1 X102.222 Y88.834 E3.82638
G1 X104.358 Y89.482 E4.02930
G1 X106.325 Y90.534 E4.23218
G1 X108.049 Y91.950 E4.43505
G1 X109.465 Y93.675 E4.63788
G1 X110.518 Y95.643 E4.84088
G1 X111.165 Y97.778 E5.04374
G1 X111.383 Y99.999 E5.24670
G1 X111.165 Y102.220 E5.44956
G1 X110.517 Y104.356 E5.65251
G1 X109.465 Y106.323 E5.85541
G1 X108.049 Y108.049 E6.05834
G1 X106.325 Y109.465 E6.26124
G1 X104.357 Y110.516 E6.46411
G1 X102.221 Y111.164 E6.66706
G1 X100.000 Y111.383 E6.87000
G1 X97.781 Y111.164 E7.07278
G1 X95.645 Y110.516 E7.27568
G1 X93.676 Y109.465 E7.47871
G1 X91.951 Y108.048 E7.68169
G1 X90.535 Y106.325 E7.88448
G1 X89.484 Y104.356 E8.08745
G1 X88.836 Y102.220 E8.29041
G1 X88.616 Y100.000 E8.49318
M104 S220 T0 ; set temperature
M104 S220 T1 ; set temperature
;before layer change
G1 Z0.650 F7800.000
;after layer change
G1 E6.49318 F2400.00000
G92 E0
G1 X107.834 Y107.842 F7800.000
G1 E2.00000 F2400.00000
G1 X106.161 Y109.215 E2.11759 F1800.000
G1 X104.244 Y110.239 E2.23569
G1 X102.163 Y110.871 E2.35383
G1 X100.001 Y111.084 E2.47188
G1 X97.839 Y110.871 E2.58993
G1 X95.759 Y110.239 E2.70801
G1 X93.841 Y109.215 E2.82614
G1 X92.160 Y107.833 E2.94440
G1 X90.784 Y106.159 E3.06213
G1 X89.760 Y104.241 E3.18026
G1 X89.128 Y102.162 E3.29834
G1 X88.915 Y100.000 E3.41640
G1 X89.128 Y97.837 E3.53445
G1 X89.760 Y95.757 E3.65258
G1 X90.784 Y93.840 E3.77068
G1 X92.157 Y92.167 E3.88826
G1 X93.842 Y90.783 E4.00675
G1 X95.759 Y89.759 E4.12481
G1 X97.839 Y89.128 E4.24289
G1 X100.000 Y88.915 E4.36089 F1800.000
G1 X102.164 Y89.127 E4.47903
G1 X104.244 Y89.759 E4.59712
G1 X106.161 Y90.783 E4.71521
G1 X107.836 Y92.159 E4.83303
G1 X109.217 Y93.840 E4.95120
G1 X110.241 Y95.757 E5.06929
G1 X110.872 Y97.837 E5.18738
G1 X111.085 Y100.000 E5.30548
G1 X110.872 Y102.162 E5.42352
G1 X110.240 Y104.241 E5.54160
G1 X109.217 Y106.158 E5.65967
G1 X107.882 Y107.784 E5.77399
G1 X107.947 Y108.329 F7800.000
G1 X108.211 Y108.302 F7800.000
G1 X106.491 Y109.714 E5.89488 F1800.000
G1 X104.472 Y110.793 E6.01929
G1 X102.280 Y111.458 E6.14376
G1 X100.001 Y111.682 E6.26819
G1 X97.722 Y111.458 E6.39258
G1 X95.530 Y110.793 E6.51705
G1 X93.509 Y109.714 E6.64155
G1 X91.739 Y108.260 E6.76600
G1 X90.286 Y106.492 E6.89033
G1 X89.206 Y104.471 E7.01483
G1 X88.542 Y102.278 E7.13930
G1 X88.317 Y100.000 E7.26369
G1 X88.542 Y97.721 E7.38812
G1 X89.206 Y95.528 E7.51259
G1 X90.286 Y93.509 E7.63699
G1 X91.738 Y91.740 E7.76134
G1 X93.511 Y90.286 E7.88591
G1 X95.530 Y89.206 E8.01033
G1 X97.722 Y88.542 E8.13479
G1 X100.001 Y88.318 E8.25920
G1 X101.918 Y88.506 E8.36389
G1 X102.280 Y88.542 E8.38363 F1800.000
G1 X104.472 Y89.206 E8.50809
G1 X106.492 Y90.286 E8.63254
G1 X108.261 Y91.738 E8.75689
G1 X109.713 Y93.508 E8.88127
G1 X110.793 Y95.528 E9.00573
G1 X111.458 Y97.720 E9.13018
G1 X111.682 Y99.999 E9.25461
G1 X111.458 Y102.278 E9.37902
G1 X110.793 Y104.470 E9.50348
G1 X109.713 Y106.490 E9.62790
G1 X108.268 Y108.253 E9.75177
G1 X107.733 Y108.156 F7800.000
;before layer change
G1 Z0.950 F7800.000
;after layer change
G1 X107.745 Y107.752 F7800.000
G1 X106.090 Y109.110 E9.86808 F1800.000
G1 X104.195 Y110.122 E9.98484
G1 X102.138 Y110.747 E10.10162
G1 X100.001 Y110.957 E10.21834
G1 X97.863 Y110.747 E10.33503
G1 X95.808 Y110.122 E10.45175
G1 X93.912 Y109.110 E10.56851
G1 X92.249 Y107.744 E10.68544
G1 X90.889 Y106.088 E10.80183
G1 X89.877 Y104.193 E10.91860
G1 X89.253 Y102.137 E11.03531
G1 X89.042 Y100.000 E11.15203
G1 X89.252 Y97.862 E11.26873
G1 X89.877 Y95.806 E11.38551
G1 X90.890 Y93.910 E11.50228
G1 X92.247 Y92.255 E11.61856
G1 X93.913 Y90.888 E11.73563
G1 X95.808 Y89.877 E11.85235
G1 X97.863 Y89.253 E11.96906
G1 X98.850 Y89.156 E12.02291
G1 X100.001 Y89.042 E12.08577 F1800.000
G1 X102.139 Y89.252 E12.20250
G1 X104.195 Y89.876 E12.31923
G1 X106.090 Y90.888 E12.43597
G1 X107.747 Y92.249 E12.55245
G1 X109.111 Y93.911 E12.66927
G1 X110.124 Y95.806 E12.78601
G1 X110.748 Y97.862 E12.90274
G1 X110.958 Y100.000 E13.01949
G1 X110.747 Y102.137 E13.13619
G1 X110.123 Y104.193 E13.25289
G1 X109.111 Y106.088 E13.36962
G1 X107.793 Y107.694 E13.48251
G1 X107.859 Y108.239 F7800.000
G1 X108.283 Y108.407 F7800.000
G1 X106.562 Y109.819 E13.60347 F1800.000
G1 X104.521 Y110.911 E13.72923
G1 X102.304 Y111.583 E13.85507
G1 X100.000 Y111.809 E13.98086
G1 X97.698 Y111.582 E14.10655
G1 X95.482 Y110.910 E14.23237
G1 X93.438 Y109.819 E14.35823
G1 X91.649 Y108.350 E14.48403
G1 X90.181 Y106.562 E14.60972
G1 X89.090 Y104.519 E14.73558
G1 X88.418 Y102.303 E14.86140
G1 X88.191 Y100.000 E14.98709
G1 X88.417 Y97.696 E15.11288
G1 X89.089 Y95.480 E15.23872
G1 X90.181 Y93.439 E15.36447
G1 X91.648 Y91.650 E15.49020
G1 X93.440 Y90.181 E15.61609
G1 X95.482 Y89.089 E15.74189
G1 X97.698 Y88.417 E15.86771
G1 X100.001 Y88.191 E15.99347
G1 X102.305 Y88.417 E16.11924
G1 X104.521 Y89.089 E16.24503 F1800.000
G1 X106.563 Y90.181 E16.37085
G1 X108.351 Y91.649 E16.49656
G1 X109.818 Y93.438 E16.62228
G1 X110.911 Y95.480 E16.74809
G1 X111.582 Y97.695 E16.87388
G1 X111.809 Y99.999 E16.99967
G1 X111.582 Y102.303 E17.12541
G1 X110.911 Y104.519 E17.25123
G1 X109.819 Y106.561 E17.37703
G1 X108.341 Y108.359 E17.50352
G1 X107.804 Y108.260 F7800.000
;before layer change
G1 Z1.250 F7800.000
;after layer change
G1 X107.657 Y107.662 F7800.000
G1 X106.020 Y109.004 E17.61854 F1800.000
G1 X104.146 Y110.005 E17.73397
G1 X102.114 Y110.623 E17.84939
G1 X100.000 Y110.830 E17.96477
G1 X97.887 Y110.623 E18.08012
G1 X95.856 Y110.005 E18.19547
G1 X93.983 Y109.005 E18.31086
G1 X92.339 Y107.654 E18.42645
G1 X90.995 Y106.018 E18.54152
G1 X89.994 Y104.144 E18.65691
G1 X89.377 Y102.113 E18.77226
G1 X89.169 Y100.000 E18.88765
G1 X89.376 Y97.887 E19.00299
G1 X89.994 Y95.854 E19.11842
G1 X90.996 Y93.981 E19.23385
G1 X92.338 Y92.344 E19.34884
G1 X93.983 Y90.994 E19.46449
G1 X95.856 Y89.994 E19.57986
G1 X97.888 Y89.377 E19.69520
G1 X100.000 Y89.169 E19.81053 F1800.000
G1 X102.114 Y89.377 E19.92594
G1 X104.146 Y89.993 E20.04132
G1 X106.019 Y90.994 E20.15670
G1 X107.657 Y92.339 E20.27184
G1 X109.006 Y93.981 E20.38732
G1 X110.006 Y95.854 E20.50270
G1 X110.623 Y97.887 E20.61808
G1 X110.830 Y100.000 E20.73348
G1 X110.623 Y102.113 E20.84882
G1 X110.006 Y104.144 E20.96417
G1 X109.006 Y106.017 E21.07954
G1 X107.704 Y107.604 E21.19102
G1 X107.770 Y108.149 F7800.000
G1 X108.354 Y108.512 F7800.000
G1 X106.632 Y109.924 E21.31203 F1800.000
G1 X104.569 Y111.028 E21.43914
G1 X102.329 Y111.707 E21.56635
G1 X99.999 Y111.936 E21.69350
G1 X97.673 Y111.706 E21.82050
G1 X95.434 Y111.027 E21.94767
G1 X93.368 Y109.924 E22.07490
G1 X91.559 Y108.439 E22.20204
G1 X90.075 Y106.633 E22.32907
G1 X88.973 Y104.567 E22.45629
G1 X88.293 Y102.327 E22.58347
G1 X88.064 Y100.000 E22.71049
G1 X88.293 Y97.672 E22.83761
G1 X88.972 Y95.431 E22.96482
G1 X90.075 Y93.368 E23.09193
G1 X91.559 Y91.560 E23.21903
G1 X93.369 Y90.075 E23.34624
G1 X95.434 Y88.971 E23.47343
G1 X97.673 Y88.292 E23.60060
G1 X100.002 Y88.064 E23.72770
G1 X102.330 Y88.292 E23.85482
G1 X104.569 Y88.971 E23.98195 F1800.000
G1 X106.633 Y90.076 E24.10913
G1 X108.441 Y91.559 E24.23620
G1 X109.924 Y93.367 E24.36325
G1 X111.028 Y95.431 E24.49043
G1 X111.707 Y97.670 E24.61756
G1 X111.935 Y99.999 E24.74471
G1 X111.707 Y102.327 E24.87178
G1 X111.028 Y104.567 E24.99895
G1 X109.925 Y106.631 E25.12613
G1 X108.412 Y108.464 E25.25524
G1 X107.876 Y108.365 F7800.000
;before layer change
G1 Z1.550 F7800.000
;after layer change
G1 X107.582 Y107.586 F7800.000
G1 X105.960 Y108.915 E25.36914 F1800.000
G1 X104.105 Y109.907 E25.48345
G1 X102.093 Y110.519 E25.59772
G1 X100.001 Y110.723 E25.71191
G1 X97.908 Y110.518 E25.82618
G1 X95.897 Y109.907 E25.94038
G1 X94.042 Y108.916 E26.05463
G1 X92.414 Y107.579 E26.16908
G1 X91.084 Y105.958 E26.28304
G1 X90.093 Y104.104 E26.39728
G1 X89.481 Y102.092 E26.51148
G1 X89.276 Y99.999 E26.62575
G1 X89.480 Y97.908 E26.73994
G1 X90.093 Y95.895 E26.85422
G1 X91.084 Y94.040 E26.96852
G1 X92.414 Y92.418 E27.08245
G1 X94.042 Y91.083 E27.19689
G1 X95.897 Y90.092 E27.31113
G1 X97.908 Y89.482 E27.42532
G1 X98.377 Y89.436 E27.45092
G1 X100.001 Y89.276 E27.53958 F1800.000
G1 X102.093 Y89.482 E27.65378
G1 X104.105 Y90.092 E27.76802
G1 X105.960 Y91.083 E27.88227
G1 X107.584 Y92.416 E27.99645
G1 X108.917 Y94.041 E28.11063
G1 X109.907 Y95.895 E28.22487
G1 X110.518 Y97.908 E28.33911
G1 X110.723 Y99.999 E28.45332
G1 X110.518 Y102.092 E28.56757
G1 X109.907 Y104.103 E28.68176
G1 X108.917 Y105.958 E28.79601
G1 X107.629 Y107.528 E28.90632
G1 X107.695 Y108.073 F7800.000
G1 X108.414 Y108.600 F7800.000
G1 X106.691 Y110.013 E29.02734 F1800.000
G1 X104.610 Y111.126 E29.15559
G1 X102.349 Y111.812 E29.28395
G1 X100.000 Y112.042 E29.41222
G1 X97.653 Y111.811 E29.54035
G1 X95.393 Y111.125 E29.66867
G1 X93.309 Y110.013 E29.79703
G1 X91.483 Y108.515 E29.92531
G1 X89.987 Y106.692 E30.05348
G1 X88.874 Y104.608 E30.18184
G1 X88.189 Y102.348 E30.31016
G1 X87.957 Y100.000 E30.43831
G1 X88.188 Y97.651 E30.56656
G1 X88.873 Y95.391 E30.69491
G1 X89.987 Y93.309 E30.82317
G1 X91.483 Y91.484 E30.95140
G1 X93.310 Y89.986 E31.07975
G1 X95.393 Y88.873 E31.20809
G1 X97.653 Y88.187 E31.33640
G1 X100.001 Y87.957 E31.46461
G1 X101.849 Y88.137 E31.56547
G1 X102.351 Y88.187 E31.59289 F1800.000
G1 X104.610 Y88.873 E31.72115
G1 X106.692 Y89.987 E31.84947
G1 X108.517 Y91.483 E31.97767
G1 X110.013 Y93.308 E32.10588
G1 X111.127 Y95.391 E32.23420
G1 X111.812 Y97.649 E32.36246
G1 X112.042 Y99.999 E32.49075
G1 X111.812 Y102.348 E32.61895
G1 X111.127 Y104.608 E32.74726
G1 X110.014 Y106.691 E32.87560
G1 X108.472 Y108.553 E33.00695
G1 X107.936 Y108.454 F7800.000
;before layer change
G1 Z1.850 F7800.000
;after layer change
G1 X107.541 Y107.546 F7800.000
G1 X105.929 Y108.868 E33.12024 F1800.000
G1 X104.083 Y109.855 E33.23393
G1 X102.082 Y110.463 E33.34761
G1 X100.002 Y110.666 E33.46114
G1 X97.919 Y110.462 E33.57483
G1 X95.919 Y109.854 E33.68844
G1 X94.074 Y108.869 E33.80207
G1 X92.454 Y107.540 E33.91593
G1 X91.131 Y105.926 E34.02930
G1 X90.145 Y104.082 E34.14293
G1 X89.537 Y102.081 E34.25654
G1 X89.334 Y99.999 E34.37023
G1 X89.536 Y97.919 E34.48377
G1 X90.145 Y95.917 E34.59744
G1 X91.131 Y94.072 E34.71113
G1 X92.454 Y92.458 E34.82449
G1 X94.074 Y91.130 E34.93832
G1 X95.919 Y90.144 E35.05196
G1 X97.919 Y89.537 E35.16554
G1 X100.000 Y89.332 E35.27915 F1800.000
G1 X102.082 Y89.537 E35.39283
G1 X104.084 Y90.144 E35.50646
G1 X105.928 Y91.130 E35.62008
G1 X107.544 Y92.454 E35.73362
G1 X108.870 Y94.073 E35.84727
G1 X109.855 Y95.917 E35.96089
G1 X110.462 Y97.918 E36.07452
G1 X110.667 Y100.000 E36.18815
G1 X110.462 Y102.081 E36.30180
G1 X109.855 Y104.082 E36.41539
G1 X108.870 Y105.926 E36.52903
G1 X107.589 Y107.488 E36.63878
G1 X107.655 Y108.033 F7800.000
G1 X108.445 Y108.648 F7800.000
G1 X106.723 Y110.060 E36.75977 F1800.000
G1 X104.631 Y111.178 E36.88864
G1 X102.360 Y111.867 E37.01759
G1 X100.002 Y112.099 E37.14634
G1 X97.641 Y111.866 E37.27522
G1 X95.371 Y111.178 E37.40413
G1 X93.278 Y110.060 E37.53307
G1 X91.444 Y108.555 E37.66197
G1 X89.940 Y106.723 E37.79075
G1 X88.822 Y104.630 E37.91969
G1 X88.133 Y102.359 E38.04860
G1 X87.900 Y99.998 E38.17748
G1 X88.132 Y97.640 E38.30623
G1 X88.821 Y95.369 E38.43517
G1 X89.940 Y93.278 E38.56404
G1 X91.443 Y91.444 E38.69289
G1 X93.278 Y89.939 E38.82183
G1 X95.371 Y88.820 E38.95077
G1 X97.642 Y88.132 E39.07968
G1 X100.002 Y87.899 E39.20855
G1 X101.737 Y88.070 E39.30326
G1 X102.362 Y88.132 E39.33739 F1800.000
G1 X104.631 Y88.821 E39.46625
G1 X106.724 Y89.940 E39.59517
G1 X108.551 Y91.437 E39.72354
G1 X110.060 Y93.277 E39.85280
G1 X111.179 Y95.369 E39.98172
G1 X111.868 Y97.639 E40.11058
G1 X112.101 Y99.999 E40.23943
G1 X111.868 Y102.359 E40.36829
G1 X111.179 Y104.629 E40.49720
G1 X110.061 Y106.722 E40.62614
G1 X108.556 Y108.556 E40.75500
G1 X108.503 Y108.600 E40.75878
G1 X107.977 Y108.471 F7800.000
;before layer change
G1 Z2.150 F7800.000
;after layer change
G1 X107.362 Y108.904 F7800.000
G1 X106.450 Y109.652 E40.85504 F900.000
G1 X104.443 Y110.725 E41.04084
G1 X102.265 Y111.386 E41.22669
G1 X101.091 Y111.501 E41.32298
G1 X101.091 Y111.051 E41.35976
G1 X102.177 Y110.945 E41.44886
G1 X104.271 Y110.309 E41.62754
G1 X106.201 Y109.277 E41.80617
G1 X107.044 Y108.586 E41.89517
G1 X107.309 Y108.851 E41.92576
G1 X108.173 Y108.944 F7800.000
G1 X106.755 Y110.107 E42.02544 F900.000
G1 X104.653 Y111.231 E42.15492
G1 X102.371 Y111.923 E42.28446
G1 X100.546 Y112.103 E42.38413
G1 X100.546 Y110.556 E42.46815
G1 X102.070 Y110.408 E42.55139
G1 X104.062 Y109.803 E42.66447
G1 X105.897 Y108.821 E42.77754
G1 X107.081 Y107.851 E42.86069
G1 X108.120 Y108.891 E42.94057
G1 X107.683 Y109.041 F7800.000
G1 E40.94057 F2400.00000
G92 E0
G1 X98.913 Y111.050 F7800.000
G1 E2.00000 F2400.00000
G1 X98.913 Y111.500 E2.03675 F900.000
G1 X97.737 Y111.385 E2.13320
G1 X95.559 Y110.724 E2.31902
G1 X93.551 Y109.652 E2.50485
